src/assets/icons/heart-fill.svg

<svg width="14" height="14" viewBox="0 0 14 14" fill="none" xmlns="http://www.w3.org/2000/svg">
<g id="heart-fill">
<g clip-path="url(#clip0_156_4708)">
<path id="Vector" d="M12.8409 1.96637L12.8401 1.96477C12.0903 1.21251 11.0939 0.797974 10.0336 0.797974H10.0328C8.97241 0.797974 7.97528 1.21251 7.22463 1.96477L7.00055 2.18964L6.77647 1.96477C6.02662 1.21251 5.02949 0.797974 3.96833 0.797974C2.90718 0.797974 1.91004 1.21251 1.16019 1.96477C-0.38673 3.51649 -0.38673 6.04213 1.16019 7.59305L6.57481 13.0253C6.68764 13.1389 6.8405 13.2021 6.99975 13.2021C7.159 13.2021 7.31265 13.1389 7.42469 13.0253L12.8393 7.59305C14.3862 6.04133 14.387 3.51729 12.8409 1.96637Z" fill="black"/>
</g>
</g>
<defs>
<clipPath id="clip0_156_4708">
<rect width="14" height="14" fill="white"/>
</clipPath>
</defs>
</svg>

<svg xmlns="http://www.w3.org/2000/svg" fill="none" viewBox="0 0 14 14"><g clip-path="url(#a)"><path fill="#000" d="M12.84 1.966v-.001A3.94 3.94 0 0 0 10.034.798h-.001c-1.06 0-2.058.415-2.808 1.167L7 2.19l-.225-.225A3.94 3.94 0 0 0 3.968.798 3.94 3.94 0 0 0 1.16 1.965a3.993 3.993 0 0 0 0 5.628l5.415 5.432a.6.6 0 0 0 .85 0l5.414-5.432a3.99 3.99 0 0 0 .002-5.627"/></g><defs><clipPath id="a"><path fill="#fff" d="M0 0h14v14H0z"/></clipPath></defs></svg>
